; generated by PrusaSlicer (hand-written sample for Kerf)
M83 ; relative extrusion
G21 ; millimeters
;LAYER_CHANGE
;Z:0.2
;HEIGHT:0.2
;TYPE:External perimeter
;WIDTH:0.45
G1 F1200 X100 Y100 E.50
G1 X120 Y100 E.50
G1 X120 Y120 E.50
G1 X100 Y120 E.50
G1 X100 Y100 E.50
;TYPE:Internal infill
;WIDTH:0.45
G1 X105 Y105 E.20
G1 X115 Y115 E.30
G1 E-0.80 F2100 ; retraction (travel, no material)
;TYPE:Skirt/Brim
G1 X90 Y90 E.20 ; unknown role -> recorded, filed as Perimeter
;LAYER_CHANGE
;Z:0.4
;TYPE:External perimeter
G1 X100 Y100 E.50
G1 X120 Y100 E.50
G1 X120 Y120 E.50
;TYPE:Overhang perimeter
G3 X100 Y120 I-10 J0 E.30 ; arc (G2/G3) — flattened to chords by the parser
